src/assets/duotone/CloudDrizzle.svg

<svg width="24" height="24" viewBox="0 0 24 24"  xmlns="http://www.w3.org/2000/svg">
<path opacity="0.4" d="M21.74 11.7401C21.13 9.74005 19.61 8.30005 17.7 7.87005C17.14 5.37005 15.6 3.58005 13.42 2.90005C11.04 2.17005 8.28 2.88005 6.55 4.69005C5.02 6.28005 4.52 8.47005 5.11 10.8001C2.98 11.3201 2 13.1801 2 14.8601C2 16.7401 3.23 18.8501 5.97 19.0401H8.5V16.4101C8.5 15.1401 9.26 14.3801 10.53 14.3801H13.47C14.74 14.3801 15.5 15.1401 15.5 16.4101V19.0401H16.31C16.32 19.0401 16.34 19.0401 16.35 19.0401C17.77 19.0401 19.13 18.5101 20.17 17.5601C21.8 16.1401 22.4 13.9101 21.74 11.7401Z" />
<path d="M13.47 14.39H10.53C9.26 14.39 8.5 15.15 8.5 16.42V19.36C8.5 20.63 9.26 21.39 10.53 21.39H13.47C14.74 21.39 15.5 20.63 15.5 19.36V16.42C15.5 15.15 14.74 14.39 13.47 14.39ZM11.71 18.84L10.47 20.07C10.38 20.16 10.26 20.21 10.15 20.21C10.02 20.21 9.91 20.16 9.82 20.07C9.64 19.89 9.64 19.6 9.82 19.42L11.05 18.18C11.24 18 11.53 18 11.71 18.18C11.89 18.36 11.89 18.66 11.71 18.84ZM11.71 16.36L10.47 17.6C10.38 17.69 10.26 17.74 10.15 17.74C10.02 17.74 9.91 17.69 9.82 17.6C9.64 17.42 9.64 17.12 9.82 16.94L11.05 15.71C11.24 15.53 11.53 15.53 11.71 15.71C11.89 15.89 11.89 16.18 11.71 16.36ZM14.18 18.84L12.95 20.07C12.85 20.16 12.74 20.21 12.62 20.21C12.5 20.21 12.38 20.16 12.29 20.07C12.11 19.89 12.11 19.6 12.29 19.42L13.53 18.18C13.71 18 14 18 14.18 18.18C14.36 18.36 14.36 18.66 14.18 18.84ZM14.18 16.36L12.95 17.6C12.85 17.69 12.74 17.74 12.62 17.74C12.5 17.74 12.38 17.69 12.29 17.6C12.11 17.42 12.11 17.12 12.29 16.94L13.53 15.71C13.71 15.53 14 15.53 14.18 15.71C14.36 15.89 14.36 16.18 14.18 16.36Z" />
</svg>

<?xml version="1.0" encoding="UTF-8"?>
<svg width="24" height="24" viewBox="0 0 24 24" xmlns="http://www.w3.org/2000/svg">
 <path d="m21.74 11.74c-0.61-2-2.13-3.44-4.04-3.87-0.56-2.5-2.1-4.29-4.28-4.97-2.38-0.73-5.14-0.02-6.87 1.79-1.53 1.59-2.03 3.78-1.44 6.11-2.13 0.52-3.11 2.38-3.11 4.06 0 1.88 1.23 3.99 3.97 4.18h2.53v-2.63c0-1.27 0.76-2.03 2.03-2.03h2.94c1.27 0 2.03 0.76 2.03 2.03v2.63h0.81 0.04c1.42 0 2.78-0.53 3.82-1.48 1.63-1.42 2.23-3.65 1.57-5.82z" opacity=".4"/>
 <path d="m13.47 14.39h-2.94c-1.27 0-2.03 0.76-2.03 2.03v2.94c0 1.27 0.76 2.03 2.03 2.03h2.94c1.27 0 2.03-0.76 2.03-2.03v-2.94c0-1.27-0.76-2.03-2.03-2.03zm-1.76 4.45-1.24 1.23c-0.09 0.09-0.21 0.14-0.32 0.14-0.13 0-0.24-0.05-0.33-0.14-0.18-0.18-0.18-0.47 0-0.65l1.23-1.24c0.19-0.18 0.48-0.18 0.66 0s0.18 0.48 0 0.66zm0-2.48-1.24 1.24c-0.09 0.09-0.21 0.14-0.32 0.14-0.13 0-0.24-0.05-0.33-0.14-0.18-0.18-0.18-0.48 0-0.66l1.23-1.23c0.19-0.18 0.48-0.18 0.66 0s0.18 0.47 0 0.65zm2.47 2.48-1.23 1.23c-0.1 0.09-0.21 0.14-0.33 0.14s-0.24-0.05-0.33-0.14c-0.18-0.18-0.18-0.47 0-0.65l1.24-1.24c0.18-0.18 0.47-0.18 0.65 0s0.18 0.48 0 0.66zm0-2.48-1.23 1.24c-0.1 0.09-0.21 0.14-0.33 0.14s-0.24-0.05-0.33-0.14c-0.18-0.18-0.18-0.48 0-0.66l1.24-1.23c0.18-0.18 0.47-0.18 0.65 0s0.18 0.47 0 0.65z"/>
</svg>
